X: 137
T:60th Summer Assembly
K:G
M:4/4
C:Muriel Johnstone
L:1/8
R:Strathspey
D2|"G"G2 G>F "Em"G2 (3GAB|"Am"c>B A>G "D7"F<A A>d|"G"G2 G>F "Em"G2 (3GAB
|"Am" c>B d<e "D7"d2 E>F||
"G"G2 G>F "Em"G2 (3GAB|"Am" c>B A>G "C"E<G G>E|"G"D>E E<B "C"c>B c<e|"D7
"
d<D E>F "G"G2|!
a|"Em"g>f g>e "Bm"d<BB>d|"Am"c>B"D7"c>B "G"B>dd>a|"Em"g>f "C"g>e "G"d<G
"G7" (3GAB|
"Am"c>B A<G "D7"d2d>a|!
"Em"g>f "C"g>e "G"d<G (3GAB|"Am" c>B A>G "C"E<G G>E|"G"D>E G<B "Am"c>B c
<e|
"D7" d<D E>F "G"G2||
% <A name="D1X138"></A>

